X:1
T:Russian Folk Song
T:Russian Folk Song
T:Theme from Variations for Violin and Piano
T:LUDWIG van BEETHOVEN
T:Arranged by Larry Clark
C:LUDWIG van BEETHOVEN
Z:Arranged by Larry Clark
%%score 1 2
L:1/8
Q:1/4=114
M:2/4
K:Eb
V:1 treble transpose=-7 nm="Horn in F" snm="F Hn."
V:2 bass nm="Trombone" snm="Tbn."
V:1
[K:Bb]!f!"^Vivace" (D.F) .F.F | (D.F) .F.F | (GE CE) | (ED) D2 | (D.F) .F.F | (D.F) .F.F | %6
 (GE CA,) | (CB,) B,2 | (B.d) .d.d | (B.d) .d.d | (ec Ac) | (cB) B2 | (B.d) .d.d | (B.d) .d.d | %14
 (ec AF) | (ED) D2 | B2 (B>A) | (A>G) G2 | (FG FE) | (ED) D2 | B2 (B>A) | (A>G) G2 | .F(F GA) | %23
 (c>B) B2 | (d2 B2 | e2 c2) | (F2 A2 | d2 B2) | (d2 B2 | e2 c2) | (f2 F2 | B4) | (D.F) .F.F | %33
 (D.F) .F.F | (GE CE) | (ED) D2 | (D.F) .F.F | (D.F) .F.F | (GE CA,) | (CB,) B,2 |] %40
V:2
!f! (E,.G,) .G,.G, | (E,.G,) .G,.G, | (A,F, D,F,) | (F,E,) E,2 | (E,.G,) .G,.G, | (E,.G,) .G,.G, | %6
 (A,F, D,B,,) | (A,,G,,) G,,2 | (G,.B,) .B,.B, | (G,.B,) .B,.B, | (CA, F,A,) | (A,G,) G,2 | %12
 (G,.B,) .B,.B, | (G,.B,) .B,.B, | (CA, F,D,) | (F,E,) E,2 | (G,2 E,2 | A,2 F,2) | (B,,2 D,2 | %19
 G,2 E,2) | (G,2 E,2 | A,2 F,2) | (B,2 B,,2 | E,4) | E,2 (E,>D,) | (D,>C,) C,2 | (B,,C, B,,A,,) | %27
 (A,,G,,) G,,2 | E,2 (E,>D,) | (D,>C,) C,2 | .B,,(B,, C,D,) | (F,>E,) E,2 | (E,.G,) .G,.G, | %33
 (E,.G,) .G,.G, | (A,F, D,F,) | (F,E,) E,2 | (E,.G,) .G,.G, | (E,.G,) .G,.G, | (A,F, D,B,,) | %39
 (A,,G,,) G,,2 |] %40

